X: 17781
T: Honeymoon, The
R: reel
M: 4/4
K: Gmajor
|:dc|BGGG DGGG|Bdef gedc|BGGG DGGG|BedB A2GA|
BGGG DGGG|Bdef gfga|bgaf gfed|egdB A2:|
|:Bd|e2ef edBA|Bdef gedc|BGGG DGGG|BedB A2Bd|
edef edBA|(3Bcd ef gfga|bgaf gfed|egdB A2:|

